build/documents/UnsignOutline.svg

<svg xmlns="http://www.w3.org/2000/svg" fill="none" viewBox="0 0 24 24" focusable="false"><path d="M0 0H24V24H0z"/><path fill="#74767B" fill-rule="evenodd" d="M20.8028 4.17661C21.0589 3.92752 21.0665 3.51603 20.8197 3.25752C20.573 2.99902 20.1653 2.99138 19.9092 3.24046L18 5.09735L16.0908 3.24046C15.8347 2.99138 15.427 2.99902 15.1803 3.25752C14.9335 3.51603 14.9411 3.92752 15.1972 4.17661L17.0719 5.99999L15.1971 7.8234C14.941 8.07248 14.9335 8.48397 15.1802 8.74248C15.427 9.00099 15.8347 9.00863 16.0908 8.75954L18 6.90263L19.9092 8.75954C20.1653 9.00863 20.573 9.00099 20.8198 8.74248C21.0665 8.48397 21.059 8.07248 20.8029 7.8234L18.9281 5.99999L20.8028 4.17661ZM9.27984 4.47157C8.77215 3.96389 7.94904 3.96389 7.44136 4.47157L5.7443 6.16863C5.23662 6.67631 5.23662 7.49942 5.7443 8.0071L16.2167 18.4795C16.6142 18.877 17.1155 19.1549 17.6634 19.2813L19.3945 19.6808C20.3306 19.8968 21.1695 19.0579 20.9535 18.1218L20.554 16.3907C20.4276 15.8428 20.1498 15.3415 19.7522 14.9439L9.27984 4.47157ZM8.3606 5.39081L6.66354 7.08787L8.28467 8.709L9.98173 7.01195L8.3606 5.39081ZM10.901 7.93119L18.8329 15.8632C19.0582 16.0885 19.2157 16.3725 19.2873 16.683L19.6868 18.4141L17.9557 18.0146C17.6453 17.943 17.3612 17.7855 17.1359 17.5602L9.20391 9.62824L10.901 7.93119ZM6.65244 19.9092C7.83343 19.9092 8.55417 19.3011 9.10676 18.8349L9.139 18.8077C9.70604 18.3297 10.106 18.0123 10.7938 18.0123C12.0657 18.0123 12.6923 18.7911 13.1615 19.3743C13.2574 19.4936 13.3468 19.6046 13.4337 19.6992C13.6767 19.9634 14.0879 19.9806 14.3522 19.7376C14.6164 19.4946 14.6336 19.0835 14.3906 18.8192C14.358 18.7837 14.3131 18.725 14.2552 18.6493C13.8432 18.1105 12.7739 16.7123 10.7938 16.7123C9.6069 16.7123 8.88411 17.322 8.32979 17.7896L8.30111 17.8138C7.7328 18.2928 7.33539 18.6092 6.65245 18.6092C5.26833 18.6092 4.6649 17.7839 4.28518 17.2646C4.24801 17.2137 4.21297 17.1658 4.17956 17.1219C3.96221 16.8362 3.5544 16.7808 3.26869 16.9981C2.98298 17.2155 2.92757 17.6233 3.14493 17.909C3.16983 17.9417 3.19894 17.9823 3.23261 18.0293C3.61403 18.5611 4.58092 19.9092 6.65244 19.9092Z"/></svg>

<svg xmlns="http://www.w3.org/2000/svg" fill="none" viewBox="0 0 24 24" focusable="false"><path fill="#74767B" fill-rule="evenodd" d="M20.81 3.25c.25.26.24.67-.01.92L18.92 6l1.88 1.82c.25.25.26.66.01.92-.24.26-.65.26-.91.01L18 6.9l-1.91 1.85c-.26.25-.67.25-.91-.01a.66.66 0 0 1 .01-.92L17.07 6l-1.88-1.83a.66.66 0 0 1-.01-.92c.24-.26.65-.26.91-.01L18 5.09l1.9-1.85c.26-.25.67-.25.91.01M9.27 4.47c-.5-.51-1.33-.51-1.83 0l-1.7 1.69c-.51.51-.51 1.33 0 1.84l10.47 10.47c.4.4.9.68 1.45.81l1.73.4c.94.21 1.77-.63 1.56-1.56l-.4-1.73c-.13-.55-.41-1.05-.8-1.45zm-.91.92-1.7 1.69L8.28 8.7l1.7-1.69zm2.54 2.54 7.93 7.93c.22.22.38.51.45.82l.4 1.73-1.73-.4c-.31-.07-.59-.23-.82-.45L9.2 9.62zM6.65 19.9c1.18 0 1.9-.6 2.45-1.07l.03-.03c.57-.48.97-.79 1.66-.79 1.27 0 1.9.78 2.37 1.36.09.12.18.23.27.32.24.27.65.29.92.04.26-.24.28-.65.04-.92-.04-.03-.08-.09-.14-.17-.41-.53-1.48-1.93-3.46-1.93-1.19 0-1.91.61-2.47 1.07l-.02.03c-.57.48-.97.79-1.65.79-1.39 0-1.99-.82-2.37-1.34-.04-.05-.07-.1-.11-.14a.65.65 0 0 0-.91-.13c-.28.22-.34.63-.12.91q.03.06.09.12c.38.54 1.35 1.88 3.42 1.88"/></svg>
